X:2
T:Coehwaed Windh Homed's
R:singel jig
Z:id:hn-slide-200
M:2/2
L:1/8
K:Bm
~D3 GAG|~D3 GEE|G2A 


*****************************


19300 3 1.030341 

<starioth Fstich by feve parthA-the bairg oct,
Z:id:hn-slide-30
M:6/8
K:D
V:1 B,2, |B3 BAG|E3 G2A|
B2A AG


*****************************


19400 3 0.9868546 

<startolhe to migert?
Z:id:hn-slide-49
M:6/8
K:D
d2g edB|A2G FED|E2G B2E|1 EGD D2c|Bcd gfB|cAG ABc|d2e e2


*****************************


19500 3 0.5765992 

<starhoth poum by the to Lig
T:An Kilges
R:slide
Z:id:hn-slide-56
M:6/8
K:G
d2B G2g|d2A GEC|c2d c2A|G2g f


*****************************


19600 3 0.83711547 

<starathinsist part>
Azc ABc|z2A c2B|cBc A2G|FED FED|E2D E2F|E2E F2E|E2D E2E|FGA BAB|cBA Bcd|
~f3 a2a|agf


*****************************


19700 3 0.8530061 

<starton D]
<end>
<start>
